svgs/light/message-arrow-up-right.svg

<svg xmlns="http://www.w3.org/2000/svg" viewBox="0 0 512 512"><!--! Font Awesome Pro 6.3.0 by @fontawesome - https://fontawesome.com License - https://fontawesome.com/license (Commercial License) Copyright 2023 Fonticons, Inc. --><path d="M448 0H64C28.75 0 0 28.75 0 63.1v287.1c0 35.25 28.75 63.1 64 63.1h96V499.1c0 9.838 11.03 15.55 19.12 9.699L304 415.1H448c35.25 0 64-28.75 64-63.1V63.1C512 28.75 483.3 0 448 0zM480 352c0 17.6-14.4 32-32 32h-144.1c-6.928 0-13.67 2.248-19.21 6.406L192 460v-60c0-8.838-7.164-16-16-16H64c-17.6 0-32-14.4-32-32V64c0-17.6 14.4-32 32-32h384c17.6 0 32 14.4 32 32V352zM358.1 113.2C356.2 112.4 354.1 112 352 112H224C215.2 112 208 119.2 208 128S215.2 144 224 144h89.38L180.7 276.7c-6.25 6.25-6.25 16.38 0 22.62C183.8 302.4 187.9 304 192 304s8.188-1.562 11.31-4.688L336 166.6V256c0 8.844 7.156 16 16 16s16-7.156 16-16V128c0-2.082-.4219-4.154-1.23-6.109C365.1 117.1 362 114.9 358.1 113.2z"/></svg>

<svg xmlns="http://www.w3.org/2000/svg" viewBox="0 0 512 512"><!-- Font Awesome Pro 6.0.0-alpha2 by @fontawesome - https://fontawesome.com License - https://fontawesome.com/license (Commercial License) --><path d="M448 0H64C28.75 0 0 28.75 0 64V352.002C0 387.252 28.75 416.002 64 416.002H160V500.002C160 509.84 171.025 515.479 179.125 509.627L304 416.002H448C483.25 416.002 512 387.252 512 352.002V64C512 28.75 483.25 0 448 0ZM480 352.002C480 369.602 465.6 384.002 448 384.002H303.924C296.996 384.002 290.254 386.25 284.713 390.408L192 460.002V400.002C192 391.164 184.836 384.002 176 384.002H64C46.4 384.002 32 369.602 32 352.002V64C32 46.4 46.4 32 64 32H448C465.6 32 480 46.4 480 64V352.002ZM358.109 113.23C356.154 112.422 354.082 112 352 112H224C215.156 112 208 119.156 208 128S215.156 144 224 144H313.375L180.688 276.688C174.438 282.938 174.438 293.063 180.688 299.312C183.812 302.438 187.906 304 192 304S200.188 302.438 203.312 299.312L336 166.625V256C336 264.844 343.156 272 352 272S368 264.844 368 256V128C368 125.918 367.578 123.846 366.77 121.891C365.148 117.973 362.027 114.852 358.109 113.23Z"/></svg>
